!!! OTL: Berkowitz444
!!! Chapter: 1
!!! Section: IV
!!! Page: 110
!!! Mode: 
!!! Encoder: DJB
**kern
*staff1
*I"Piano
=1-
*clefF4
*k[b-]
*d:
*M4/4
4.F\
8E\
8C#\L
8D\
8F\
8A\J
=2
4B-\
4C#/
4.A\
8A\
=3
4A\
4BBn/
4.G\
8G\
=4
4G\
4AA/
4.F\
8F\
=5
4E\
4G\
4B-\
8G\L
8E\J
=6
4C#/
4B-\
4.A\
8G\
=7
8F\L
8G\J
4A\
4AA/
4C#/
=8
!!linebreak:original
8E\L
8D\J
8.D/L
16C#/Jk
2D\
==
*-
